X:1
T:Poi che rotta'e la fede
T:Domenico Obizzi
T:Arietta
T:Source : Madrigali et arie a voce sola---Libro I ---Venetia---A.Vincenti---1627. Editor : André Vierendeels (06/03/16).
T:Notes : Original clefs : C1, F4 Editorial accidentals above the staff Dotted brackets indicate black notes Note values have been halved in 3-beat measures Notation in original print : "Alfabeto d'ariette per la Chitarra alla Spagnola" realised by the editor. 
T:Poi che rotta'e la fede
T:©
T:©
C:Domenico Obizzi
Z:©
%%score 1 { ( 2 3 ) | 4 }
L:1/8
Q:1/4=120
M:4/4
K:F
V:1 treble nm="Soprano" snm="S"
V:2 treble nm="BC" snm="BC"
V:3 treble 
V:4 bass 
V:1
 z2 Ac F2 GG | A2 AA B2 c/A/B/c/ | d2 c/B/c/A/ B4 | A2 FA G2 FE | E4 D4 |[M:3/4] A2 B2 c2 | d4 c2 | %7
w: 1. Poi che rot- ta'e la|fe- de ch'un tem- po _ _ _|nel tuo _ _ _ pet-|to, heb- be ni- do'e ri-|cet- to,|foll' è co-|lui ch'in|
w: 2. Non è co- si in-|con- stan- te'il mar nel- * * *|le pro- * * * fon-|de, vo- ra- gi- ni dell'|on- de,,|si co- me'èl|cor di|
w: 3. Hor sos- pi- ra a'i|so- spi- ri'hor pian- ge'all _ _ _|al- trui _ _ _ pian-|to, hor can- t'all' al- trui|can- to,|e di con-|cor- do'a-|
w: 4. Hor per con- tra- ri-|a for- te gioi- sche _ 'all' _|al- trui _ _ _ duo-|lo, e par che ri- da|so- lo,|quan- do'al- tri'a-|man- do|
w: 5. Ben per pro- va'il so|io t'a- ma- i m'a- * * *|ma- st'in- * * * gra-|ta, hor m'o- di'es- sen- do'a-|ma- ta,|la tua fè,|la mia|
w: 6. Mà go- di pur à|pi- no, ad al- tro 'A- * *|man- te'in _ _ _ brac-|cio, ch'an- ch'io sciol- to'il tuo|lac- cio,|go- do fe-|li- ce'ad|
 B2 A2 G2 | F2 G4 | F6 | A2 B2 c2 | d4 c2 | B4 A2 | G4 G2 | E2 F2 G2 | A4 G2 | F4 E2 | DC DE F2 | %18
w: bel- la Don-|na cre-|de,|foll' è co-|lui ch'in|bel- la|Don- na,|foll' è co-|lui ch'in|bel- la|Don- * * * *|
w: bel- la Don-|n'a- man-|te,|si co- me'èl|cor di|bel- la|Don- na,|si co- me'èl|cor di|bel- la|Don- * * * *|
w: mor- pro- va'i|mar- ti-|ri,|e di con-|cor- do|a- mor|pro- va,|e di con-|cor- do|a- mor|pro- * * * va'i|
w: lei giun- ge'al-|la mor-|te,|quan- do'al- tri'a-|man- do|le- i|giun- ge,|quan- do'al- tri'a-|man- do|le- i|giun- * * * ge'al-|
w: fè po- sta'in|o- bli-|o,|la tua fè,|la mia|fè po-|* sta,|la tua fè,|la mia|fè po-|sta'in _ _ _ _|
w: al- tra Don-|na'in se-|no,|go- do fe-|li- ce'ad|al- tra|Don- na,|go- do fe-|li- ce'ad|al- tra|Don- * * * *|
 G2 G4 | F6 |] %20
w: na cre-|de.|
w: n'a- man-|te.|
w: mar- ti-|ri.|
w: la mor-|te.|
w: o- bli-|o.|
w: na'in se-|no.|
V:2
 c4 d4 | c4 B2 A2 | B2 c2 d4 | c4 d4 | ^c4 A4 |[M:3/4] A2 B2 c2 | d4 c2 | B4 c2 | A2 G4 | A6 | %10
 c2 B2 A2 | F4 c2 | d4 A2 | G6 | c2 B2 G2 | c4 c2 | A4 c2 | d4 c2 | d2 e4 | c6 |] %20
V:3
 A4 F4 | A4 D2 C2 | F4 G4 | A4 =B4 | E4 F4 |[M:3/4] F2 _E4 | F4 F2 | D4 F2 | F2 E4 | C6 | %10
 F2 G2 F2 | D4 F2 | G4 C2 | E6 | E2 F2 C2 | A4 G2 | F4 E2 | F4 A2 | B2 G2 AB | A6 |] %20
V:4
 F,4 B,2 G,2 | F,4 G,2 A,2 | B,2 A,2 G,4 | F,2 F,,2 G,,4 | A,,4 D,4 |[M:3/4] D,2 C,4 | B,,4 A,,2 | %7
 G,,4 F,,2- | F,,2 C,4 | F,,4 F,,2 | F,2 G,2 A,2 | B,4 A,2 | G,4 F,2 | C4 C2 | C,2 D,2 E,2 | %15
 F,4 E,2 | D,4 C,2 | B,,4 A,,2 | B,,2 C,4 | F,,6 |] %20

